X:1
L:1/4
Q:1/4=72
M:3/8
V:1
V:2 clef=bass 
K:C
[V:1] A/ z/4 C/4E/4A/4 | B/ z/4 E/4^G/4B/4 | c/ z/4 E/4e/4_e/4 | =e/4_e/4=e/4B/4d/4c/4 |
[V:2] A,,/4E,/4A,/4 z3/4 | E,,/4E,/4^G,/4 z3/4 | A,,/4E,/4A,/4 z3/4 | z3/2 |
